svg/fluentui-system-icons/ic_fluent_oven_24_regular.svg

<svg width="24" height="24" viewBox="0 0 24 24" fill="none" xmlns="http://www.w3.org/2000/svg">
<path d="M3 6.25C3 4.45507 4.45507 3 6.25 3H17.75C19.5449 3 21 4.45507 21 6.25V17.75C21 19.5449 19.5449 21 17.75 21H6.25C4.45507 21 3 19.5449 3 17.75V6.25ZM19.5 6.25C19.5 5.2835 18.7165 4.5 17.75 4.5H6.25C5.2835 4.5 4.5 5.2835 4.5 6.25V8H19.5V6.25ZM19.5 17.75V9.5H4.5V17.75C4.5 18.7165 5.2835 19.5 6.25 19.5H17.75C18.7165 19.5 19.5 18.7165 19.5 17.75ZM8 7.25C8.55228 7.25 9 6.80228 9 6.25C9 5.69772 8.55228 5.25 8 5.25C7.44772 5.25 7 5.69772 7 6.25C7 6.80228 7.44772 7.25 8 7.25ZM13 6.25C13 6.80228 12.5523 7.25 12 7.25C11.4477 7.25 11 6.80228 11 6.25C11 5.69772 11.4477 5.25 12 5.25C12.5523 5.25 13 5.69772 13 6.25ZM16 7.25C16.5523 7.25 17 6.80228 17 6.25C17 5.69772 16.5523 5.25 16 5.25C15.4477 5.25 15 5.69772 15 6.25C15 6.80228 15.4477 7.25 16 7.25ZM7.5 16.5V12.5H16.5V16.5H7.5ZM7.25 11C6.55964 11 6 11.5596 6 12.25V16.75C6 17.4404 6.55964 18 7.25 18H16.75C17.4404 18 18 17.4404 18 16.75V12.25C18 11.5596 17.4404 11 16.75 11H7.25Z" fill="#212121"/>
</svg>

<svg xmlns="http://www.w3.org/2000/svg" width="24" height="24"><path d="M3 6.25A3.25 3.25 0 0 1 6.25 3h11.5A3.25 3.25 0 0 1 21 6.25v11.5A3.25 3.25 0 0 1 17.75 21H6.25A3.25 3.25 0 0 1 3 17.75V6.25Zm16.5 0a1.75 1.75 0 0 0-1.75-1.75H6.25A1.75 1.75 0 0 0 4.5 6.25V8h15V6.25Zm0 11.5V9.5h-15v8.25c0 .966.784 1.75 1.75 1.75h11.5a1.75 1.75 0 0 0 1.75-1.75ZM8 7.25a1 1 0 1 0 0-2 1 1 0 0 0 0 2Zm5-1a1 1 0 1 1-2 0 1 1 0 0 1 2 0Zm3 1a1 1 0 1 0 0-2 1 1 0 0 0 0 2ZM7.5 16.5v-4h9v4h-9ZM7.25 11C6.56 11 6 11.56 6 12.25v4.5c0 .69.56 1.25 1.25 1.25h9.5c.69 0 1.25-.56 1.25-1.25v-4.5c0-.69-.56-1.25-1.25-1.25h-9.5Z"/></svg>
